X: 44
T: Domhnaill Mor Na Ceapaich
R: march
M: 4/4
L: 1/8
Q:280
K:Bbmix
|:f|Bf f>e|f/>e/f/<a/ fe/>c/|Ae ec/>e/|fe/>c/ f/>e/c/<A/|
Bf f>e|f/>e/f/<a/ fe/>c/|Aa f/>e/c/<A/|B2 B:|
|:f|Bb b>f|a/>f/g/<b/ fe/>c/|Ae ec/>e/|fb/>a/ f/>e/c/<A/|
[1 Bb b>f|a/>f/g/<b/ fe/>c/|Aa f/>e/c/<A/|B2 B:|
[2 Bf f>e|f/>e/f/<a/ fe/>c/|Aa f/>e/c/<A/|B2 B||
|:f|B/>f/c/<e/ f/>B/c/<B/|c/<e/a/>g/ {g}f>f|A/>e/c/<e/ f/>e/c/<A/|B/<c/c/>B/ Af|
B/>f/c/<e/ f/>B/c/<B/|c/<e/a/>g/ {g}f>f|Aa f/>e/c/<A/|B2 B:|
|:a|b/>b/b/>f/ B/>f/c/<e/|c/<f/a/>g/ g/<f/f/>g/|a/>a/a/>e/ A/>e/c/<e/|f/>e/c/>B/ A [1 a|
b/>b/b/>f/ B/>f/c/<e/|c/<f/a/>g/ {g}f>f|Aa f/>e/c/<A/|B2 B:|
[2 f|B/>f/c/<e/ f/>B/c/<B/|c/<e/a/>g/ {g}f>f|Aa f/>e/c/<A/|B2 B||

%%newpage

